X:2011
T:The Express
P:The Ferry
C:Traditional (Kerr's Coll.)
R:Jig (8x40) AABAB
B:RSCDS 20-11
Z:Anselm Lingnau <anselm@strathspey.org>
M:6/8
L:1/8
K:A
ed|"A"cBc Ace|"D"f3 "E7"efg|"A"a2c "F#m"cBA|"Bm"cBB "E7"Bed|
   "A"cBc Ace|"D"f3 "E7"efg|"D"a2c "E7"BAB|"A"A3 z :|
ed|"A"cea aga|"D"fdf agf|"A"e2c "F#m"cBA|"D"cBB "E7"Bed|
   "A"cBc Ace|"D"f3 "E7"efg|"A"a2c "E7"BAB|"A"A3- "D.C."A||
